icons/Business/inbox-unarchive-fill.svg

<svg viewBox="0 0 24 24" xmlns="http://www.w3.org/2000/svg"><path d="M20 3L22 7V20C22 20.5523 21.5523 21 21 21H3C2.44772 21 2 20.5523 2 20V7.00353L4 3H20ZM12 10L8 14H11V18H13V14H16L12 10ZM18.764 5H5.236L4.237 7H19.764L18.764 5Z"/></svg>

<svg xmlns="http://www.w3.org/2000/svg" viewBox="0 0 24 24">
    <g>
        <path fill="none" d="M0 0h24v24H0z"/>
        <path fill-rule="nonzero" d="M20 3l2 4v13a1 1 0 0 1-1 1H3a1 1 0 0 1-1-1V7.004L4 3h16zm-8 7l-4 4h3v4h2v-4h3l-4-4zm6.764-5H5.236l-.999 2h15.527l-1-2z"/>
    </g>
</svg>
